svgs/solid/link-simple.svg

<svg xmlns="http://www.w3.org/2000/svg" viewBox="0 0 640 512"><!--! Font Awesome Pro 6.2.0 by @fontawesome - https://fontawesome.com License - https://fontawesome.com/license (Commercial License) Copyright 2022 Fonticons, Inc. --><path d="M0 256C0 167.6 71.6 96 160 96h96c17.7 0 32 14.3 32 32s-14.3 32-32 32H160c-53 0-96 43-96 96s43 96 96 96h96c17.7 0 32 14.3 32 32s-14.3 32-32 32H160C71.6 416 0 344.4 0 256zm640 0c0 88.4-71.6 160-160 160H384c-17.7 0-32-14.3-32-32s14.3-32 32-32h96c53 0 96-43 96-96s-43-96-96-96H384c-17.7 0-32-14.3-32-32s14.3-32 32-32h96c88.4 0 160 71.6 160 160zM224 224H416c17.7 0 32 14.3 32 32s-14.3 32-32 32H224c-17.7 0-32-14.3-32-32s14.3-32 32-32z"/></svg>

<svg xmlns="http://www.w3.org/2000/svg" viewBox="0 0 640 512"><!--! Font Awesome Pro 6.1.2 by @fontawesome - https://fontawesome.com License - https://fontawesome.com/license (Commercial License) Copyright 2022 Fonticons, Inc. --><path d="M0 256C0 167.6 71.63 96 160 96H256C273.7 96 288 110.3 288 128C288 145.7 273.7 160 256 160H160C106.1 160 64 202.1 64 256C64 309 106.1 352 160 352H256C273.7 352 288 366.3 288 384C288 401.7 273.7 416 256 416H160C71.63 416 0 344.4 0 256zM480 416H384C366.3 416 352 401.7 352 384C352 366.3 366.3 352 384 352H480C533 352 576 309 576 256C576 202.1 533 160 480 160H384C366.3 160 352 145.7 352 128C352 110.3 366.3 96 384 96H480C568.4 96 640 167.6 640 256C640 344.4 568.4 416 480 416zM416 224C433.7 224 448 238.3 448 256C448 273.7 433.7 288 416 288H224C206.3 288 192 273.7 192 256C192 238.3 206.3 224 224 224H416z"/></svg>
